src/SVG/cayapa_canaima.svg

<?xml version="1.0" encoding="utf-8"?>
<!-- Generator: Adobe Illustrator 15.0.0, SVG Export Plug-In . SVG Version: 6.00 Build 0)  -->
<!DOCTYPE svg PUBLIC "-//W3C//DTD SVG 1.1//EN" "http://www.w3.org/Graphics/SVG/1.1/DTD/svg11.dtd">
<svg version="1.1" id="Layer_1" xmlns="http://www.w3.org/2000/svg" xmlns:xlink="http://www.w3.org/1999/xlink" x="0px" y="0px"
	 width="179px" height="72.333px" viewBox="0 0 179 72.333" enable-background="new 0 0 179 72.333" xml:space="preserve">
<g>
	<path fill="#6D8D24" d="M106.755,18.372c0-1.581,1.279-2.861,2.865-2.861c1.583,0,2.864,1.28,2.864,2.861
		c0,1.584-1.281,2.861-2.864,2.861C108.035,21.233,106.755,19.956,106.755,18.372z"/>
	<path fill="#6D8D24" d="M10.623,29.767h12.554c0.234,0,0.421-0.186,0.421-0.418v-4.953c0-0.228-0.187-0.424-0.421-0.424H10.623
		c-3.421,0-6.204,2.619-6.204,5.838v17.16c0,3.221,2.783,5.978,6.204,5.978h12.546c0.234,0,0.429-0.194,0.429-0.425v-5.048
		c0-0.236-0.194-0.425-0.429-0.425H10.623c-0.225,0-0.411,0.043-0.411-0.223V30.013C10.211,29.778,10.398,29.767,10.623,29.767z"/>
	<path fill="#6D8D24" d="M106.758,23.965l-0.003,28.558c0,0.23,0.19,0.425,0.428,0.425h5.03c0.238,0,0.427-0.194,0.427-0.425V23.965
		H106.758z"/>
	<path fill="#6D8D24" d="M139.25,23.854h-5.562h-0.129v23.968h-2.796V23.854h-13.739l0.014,28.66c0,0.236,0.181,0.428,0.4,0.428
		h4.738c0.224,0,0.402-0.191,0.402-0.428l-0.007-23.139h2.997v23.571h13.669h0.013V29.376h2.984l0.007,23.139
		c0,0.236,0.179,0.428,0.394,0.428h4.652c0.217,0,0.392-0.191,0.392-0.428V23.692L139.25,23.854z"/>
	<path fill="#6D8D24" d="M75.957,23.976h-5.072c-0.238,0-0.427,0.192-0.427,0.426l-0.004,23.374h-2.912V23.965H53.239v28.558
		c0,0.23,0.192,0.425,0.427,0.425h4.934c0.231,0,0.415-0.194,0.415-0.425V29.368h3.122v23.579h14.247V26.614v-2.213
		C76.383,24.168,76.191,23.976,75.957,23.976z"/>
	<path fill="#6D8D24" d="M43.601,23.965h-11.16l-6.415,28.589c-0.031,0.217,0.108,0.391,0.325,0.391h5.021
		c0.221,0,0.434-0.174,0.504-0.391l1.073-4.85H43.09l1.09,4.861c0.064,0.217,0.281,0.391,0.502,0.391h5.021
		c0.217,0,0.359-0.174,0.326-0.391L43.601,23.965z M34.055,42.589l2.825-13.216h2.278l2.825,13.216H34.055z"/>
	<path fill="#6D8D24" d="M97.282,23.965H86.117l-6.412,28.589c-0.033,0.217,0.107,0.391,0.327,0.391h5.021
		c0.219,0,0.434-0.174,0.5-0.391l1.074-4.85h10.145l1.085,4.861c0.066,0.217,0.283,0.391,0.502,0.391h5.021
		c0.222,0,0.357-0.174,0.328-0.391L97.282,23.965z M87.734,42.589l2.823-13.216h2.28l2.822,13.216H87.734z"/>
	<path fill="#6D8D24" d="M168.148,23.965h-11.163l-6.414,28.589c-0.027,0.217,0.112,0.391,0.331,0.391h5.02
		c0.222,0,0.434-0.174,0.504-0.391l1.073-4.85h10.138l1.089,4.861c0.066,0.217,0.281,0.391,0.504,0.391h5.02
		c0.221,0,0.356-0.174,0.33-0.391L168.148,23.965z M158.604,42.589l2.825-13.216h2.28l2.825,13.216H158.604z"/>
</g>
<g enable-background="new    ">
	<path fill="#6D8D24" d="M15.227,18.058c-1.513,0.328-2.875,0.492-4.088,0.492S8.957,18.4,8.228,18.101
		c-0.728-0.3-1.298-0.777-1.712-1.435c-0.414-0.656-0.699-1.427-0.856-2.312s-0.235-1.997-0.235-3.339
		c0-2.811,0.396-4.77,1.188-5.875c0.791-1.106,2.25-1.659,4.377-1.659c1.227,0,2.646,0.192,4.259,0.578l-0.085,2.354
		C13.75,6.2,12.577,6.093,11.642,6.093s-1.602,0.125-2.001,0.375C9.242,6.717,8.946,7.191,8.752,7.891
		C8.56,8.59,8.463,9.781,8.463,11.465c0,1.685,0.196,2.851,0.589,3.5s1.178,0.974,2.354,0.974c1.178,0,2.43-0.1,3.757-0.3
		L15.227,18.058z"/>
	<path fill="#6D8D24" d="M16.405,18.293l3.274-14.555h5.607l3.275,14.555h-2.954L25.03,15.66h-5.094l-0.578,2.633H16.405z
		 M21.969,6.179l-1.477,6.913h3.981l-1.478-6.913H21.969z"/>
	<path fill="#6D8D24" d="M35.24,18.293h-2.953v-5.886l-4.495-8.669h3.274l2.676,5.801l2.676-5.801h3.274l-4.452,8.669V18.293z"/>
	<path fill="#6D8D24" d="M38.943,18.293l3.274-14.555h5.607L51.1,18.293h-2.954l-0.578-2.633h-5.094l-0.578,2.633H38.943z
		 M44.507,6.179l-1.477,6.913h3.981l-1.478-6.913H44.507z"/>
	<path fill="#6D8D24" d="M58.398,14.055h-2.396v4.238h-2.954V3.738h5.351c3.453,0,5.18,1.684,5.18,5.052
		c0,1.698-0.438,3-1.316,3.906C61.384,13.603,60.096,14.055,58.398,14.055z M56.001,11.529h2.375c1.47,0,2.205-0.913,2.205-2.739
		c0-0.899-0.179-1.545-0.535-1.938s-0.913-0.589-1.67-0.589h-2.375V11.529z"/>
	<path fill="#6D8D24" d="M64.028,18.293l3.274-14.555h5.607l3.275,14.555h-2.954l-0.578-2.633h-5.094l-0.578,2.633H64.028z
		 M69.592,6.179l-1.477,6.913h3.981L70.62,6.179H69.592z"/>
</g>
<text transform="matrix(1 0 0 1 4.4185 69.293)" fill="#6D8D24" font-family="'TitilliumWeb-Regular'" font-size="16">CIUDAD / ESTADO</text>
</svg>

<?xml version="1.0" encoding="UTF-8" standalone="no"?>
<!-- Generator: Adobe Illustrator 15.0.0, SVG Export Plug-In . SVG Version: 6.00 Build 0)  -->

<svg
   xmlns:dc="http://purl.org/dc/elements/1.1/"
   xmlns:cc="http://creativecommons.org/ns#"
   xmlns:rdf="http://www.w3.org/1999/02/22-rdf-syntax-ns#"
   xmlns:svg="http://www.w3.org/2000/svg"
   xmlns="http://www.w3.org/2000/svg"
   xmlns:sodipodi="http://sodipodi.sourceforge.net/DTD/sodipodi-0.dtd"
   xmlns:inkscape="http://www.inkscape.org/namespaces/inkscape"
   version="1.1"
   id="Layer_1"
   x="0px"
   y="0px"
   width="170.16418"
   height="67.296371"
   viewBox="0 0 170.16418 67.296371"
   enable-background="new 0 0 179 72.333"
   xml:space="preserve"
   inkscape:version="0.48.3.1 r9886"
   sodipodi:docname="cayapa_canaima.svg"><metadata
   id="metadata3146"><rdf:RDF><cc:Work
       rdf:about=""><dc:format>image/svg+xml</dc:format><dc:type
         rdf:resource="http://purl.org/dc/dcmitype/StillImage" /></cc:Work></rdf:RDF></metadata><defs
   id="defs3144" /><sodipodi:namedview
   pagecolor="#ffffff"
   bordercolor="#666666"
   borderopacity="1"
   objecttolerance="10"
   gridtolerance="10"
   guidetolerance="10"
   inkscape:pageopacity="0"
   inkscape:pageshadow="2"
   inkscape:window-width="640"
   inkscape:window-height="480"
   id="namedview3142"
   showgrid="false"
   fit-margin-top="0"
   fit-margin-left="0"
   fit-margin-right="0"
   fit-margin-bottom="0"
   inkscape:zoom="2.5418994"
   inkscape:cx="85.081"
   inkscape:cy="34.610875"
   inkscape:window-x="0"
   inkscape:window-y="27"
   inkscape:window-maximized="0"
   inkscape:current-layer="Layer_1" />
<g
   id="g3108"
   transform="translate(-4.419,-3.4810001)">
	<path
   d="m 106.755,18.372 c 0,-1.581 1.279,-2.861 2.865,-2.861 1.583,0 2.864,1.28 2.864,2.861 0,1.584 -1.281,2.861 -2.864,2.861 -1.585,0 -2.865,-1.277 -2.865,-2.861 z"
   id="path3110"
   inkscape:connector-curvature="0"
   style="fill:#6d8d24" />
	<path
   d="m 10.623,29.767 h 12.554 c 0.234,0 0.421,-0.186 0.421,-0.418 v -4.953 c 0,-0.228 -0.187,-0.424 -0.421,-0.424 H 10.623 c -3.421,0 -6.204,2.619 -6.204,5.838 v 17.16 c 0,3.221 2.783,5.978 6.204,5.978 h 12.546 c 0.234,0 0.429,-0.194 0.429,-0.425 v -5.048 c 0,-0.236 -0.194,-0.425 -0.429,-0.425 H 10.623 c -0.225,0 -0.411,0.043 -0.411,-0.223 V 30.013 c -10e-4,-0.235 0.186,-0.246 0.411,-0.246 z"
   id="path3112"
   inkscape:connector-curvature="0"
   style="fill:#6d8d24" />
	<path
   d="m 106.758,23.965 -0.003,28.558 c 0,0.23 0.19,0.425 0.428,0.425 h 5.03 c 0.238,0 0.427,-0.194 0.427,-0.425 V 23.965 h -5.882 z"
   id="path3114"
   inkscape:connector-curvature="0"
   style="fill:#6d8d24" />
	<path
   d="m 139.25,23.854 h -5.562 -0.129 v 23.968 h -2.796 V 23.854 h -13.739 l 0.014,28.66 c 0,0.236 0.181,0.428 0.4,0.428 h 4.738 c 0.224,0 0.402,-0.191 0.402,-0.428 l -0.007,-23.139 h 2.997 v 23.571 h 13.669 0.013 v -23.57 h 2.984 l 0.007,23.139 c 0,0.236 0.179,0.428 0.394,0.428 h 4.652 c 0.217,0 0.392,-0.191 0.392,-0.428 V 23.692 l -8.429,0.162 z"
   id="path3116"
   inkscape:connector-curvature="0"
   style="fill:#6d8d24" />
	<path
   d="m 75.957,23.976 h -5.072 c -0.238,0 -0.427,0.192 -0.427,0.426 L 70.454,47.776 H 67.542 V 23.965 H 53.239 v 28.558 c 0,0.23 0.192,0.425 0.427,0.425 H 58.6 c 0.231,0 0.415,-0.194 0.415,-0.425 V 29.368 h 3.122 V 52.947 H 76.384 V 26.614 24.401 c -0.001,-0.233 -0.193,-0.425 -0.427,-0.425 z"
   id="path3118"
   inkscape:connector-curvature="0"
   style="fill:#6d8d24" />
	<path
   d="m 43.601,23.965 h -11.16 l -6.415,28.589 c -0.031,0.217 0.108,0.391 0.325,0.391 h 5.021 c 0.221,0 0.434,-0.174 0.504,-0.391 l 1.073,-4.85 H 43.09 l 1.09,4.861 c 0.064,0.217 0.281,0.391 0.502,0.391 h 5.021 c 0.217,0 0.359,-0.174 0.326,-0.391 l -6.428,-28.6 z M 34.055,42.589 36.88,29.373 h 2.278 l 2.825,13.216 h -7.928 z"
   id="path3120"
   inkscape:connector-curvature="0"
   style="fill:#6d8d24" />
	<path
   d="M 97.282,23.965 H 86.117 l -6.412,28.589 c -0.033,0.217 0.107,0.391 0.327,0.391 h 5.021 c 0.219,0 0.434,-0.174 0.5,-0.391 l 1.074,-4.85 h 10.145 l 1.085,4.861 c 0.066,0.217 0.283,0.391 0.502,0.391 h 5.021 c 0.222,0 0.357,-0.174 0.328,-0.391 l -6.426,-28.6 z m -9.548,18.624 2.823,-13.216 h 2.28 l 2.822,13.216 h -7.925 z"
   id="path3122"
   inkscape:connector-curvature="0"
   style="fill:#6d8d24" />
	<path
   d="m 168.148,23.965 h -11.163 l -6.414,28.589 c -0.027,0.217 0.112,0.391 0.331,0.391 h 5.02 c 0.222,0 0.434,-0.174 0.504,-0.391 l 1.073,-4.85 h 10.138 l 1.089,4.861 c 0.066,0.217 0.281,0.391 0.504,0.391 h 5.02 c 0.221,0 0.356,-0.174 0.33,-0.391 l -6.432,-28.6 z m -9.544,18.624 2.825,-13.216 h 2.28 l 2.825,13.216 h -7.93 z"
   id="path3124"
   inkscape:connector-curvature="0"
   style="fill:#6d8d24" />
</g>
<g
   enable-background="new    "
   id="g3126"
   transform="translate(-4.419,-3.4810001)">
	<path
   d="M 15.227,18.058 C 13.714,18.386 12.352,18.55 11.139,18.55 9.926,18.55 8.957,18.4 8.228,18.101 7.5,17.801 6.93,17.324 6.516,16.666 6.102,16.01 5.817,15.239 5.66,14.354 5.503,13.469 5.425,12.357 5.425,11.015 5.425,8.204 5.821,6.245 6.613,5.14 7.404,4.034 8.863,3.481 10.99,3.481 c 1.227,0 2.646,0.192 4.259,0.578 L 15.164,6.413 C 13.75,6.2 12.577,6.093 11.642,6.093 10.707,6.093 10.04,6.218 9.641,6.468 9.242,6.717 8.946,7.191 8.752,7.891 8.56,8.59 8.463,9.781 8.463,11.465 c 0,1.685 0.196,2.851 0.589,3.5 0.393,0.649 1.178,0.974 2.354,0.974 1.178,0 2.43,-0.1 3.757,-0.3 l 0.064,2.419 z"
   id="path3128"
   inkscape:connector-curvature="0"
   style="fill:#6d8d24" />
	<path
   d="M 16.405,18.293 19.679,3.738 h 5.607 l 3.275,14.555 H 25.607 L 25.03,15.66 h -5.094 l -0.578,2.633 h -2.953 z m 5.564,-12.114 -1.477,6.913 h 3.981 L 22.995,6.179 h -1.026 z"
   id="path3130"
   inkscape:connector-curvature="0"
   style="fill:#6d8d24" />
	<path
   d="M 35.24,18.293 H 32.287 V 12.407 L 27.792,3.738 h 3.274 l 2.676,5.801 2.676,-5.801 h 3.274 l -4.452,8.669 v 5.886 z"
   id="path3132"
   inkscape:connector-curvature="0"
   style="fill:#6d8d24" />
	<path
   d="M 38.943,18.293 42.217,3.738 h 5.607 L 51.1,18.293 H 48.146 L 47.568,15.66 h -5.094 l -0.578,2.633 H 38.943 z M 44.507,6.179 43.03,13.092 h 3.981 L 45.533,6.179 h -1.026 z"
   id="path3134"
   inkscape:connector-curvature="0"
   style="fill:#6d8d24" />
	<path
   d="m 58.398,14.055 h -2.396 v 4.238 H 53.048 V 3.738 h 5.351 c 3.453,0 5.18,1.684 5.18,5.052 0,1.698 -0.438,3 -1.316,3.906 -0.879,0.907 -2.167,1.359 -3.865,1.359 z m -2.397,-2.526 h 2.375 c 1.47,0 2.205,-0.913 2.205,-2.739 0,-0.899 -0.179,-1.545 -0.535,-1.938 C 59.69,6.459 59.133,6.263 58.376,6.263 h -2.375 v 5.266 z"
   id="path3136"
   inkscape:connector-curvature="0"
   style="fill:#6d8d24" />
	<path
   d="M 64.028,18.293 67.302,3.738 h 5.607 l 3.275,14.555 H 73.23 L 72.652,15.66 h -5.094 l -0.578,2.633 h -2.952 z m 5.564,-12.114 -1.477,6.913 h 3.981 L 70.62,6.179 h -1.028 z"
   id="path3138"
   inkscape:connector-curvature="0"
   style="fill:#6d8d24" />
</g>
<text
   font-size="16"
   id="text3140"
   style="font-size:16px;fill:#6d8d24;font-family:TitilliumWeb-Regular"
   x="-0.00050000002"
   y="65.811996">CIUDAD / ESTADO</text>

</svg>
